X:1
T:Title
%%score { ( 1 4 ) | ( 2 3 ) }
L:1/8
M:4/4
K:G
V:1 treble nm="Grand Piano"
V:4 treble 
V:2 treble 
V:3 treble 
V:1
 z4 z2[Q:1/4=100] DG | BB B2 B2 [Bd]2 | [Bd][Ac] [Ac]2 [Ac]2 [Ac][GB] | [FA]2 [FA]2 [Fd]2 [Ac]2 | %4
 B6 DG | BB B2 B2 [=Fd]2 | [Ec]2 [CE]2 [EG]2 [EA][EA] | [DB]2 z2 z4 |[M:3/4] [G,B,G]6 |[M:1/4] GG | %10
[M:4/4] FA [CFA]2 [CFA]2 AA | GB B2 B2 BB | c2 c2 B2 G2 | [FA]6 [Ac][Ac] | BB B2 B2 [=Fd]2 | %15
 [Ec]2 [CE]2 [EG]2 [EA]2 | BB B2 c2 F2 |[M:3/4] [B,G]6 |] %18
V:2
 z4 z2 [G,B,][G,B,D] | .G2 z2 z4[K:bass] | [D,D]2 [D,D]2 [D,D]2 [D,D]2 | %3
 [D,D]2 [D,D]2 [D,A,]2 [D,D]2 | [G,DG]6 z D | GG [G,DG]2 [G,DG]2[K:bass] [B,,G,]2 | %6
 [C,G,]2 [C,G,]2 [C,G,]2 [C,G,][C,G,] | [D,G,]D, [D,G,D]2 [D,A,D]2 [D,A,C]2 |[M:3/4] G,,6 | %9
[M:1/4] B,B, |[M:4/4] A,C D,2 D,2[K:treble] CC | B,D [G,DG]2 [G,DG]2 [G,DG][G,DG] | %12
 [A,DF]2 [A,DF]2 [G,DG]2[K:bass] [E,^C]2 | [D,D]6 [D,D][D,D] | %14
 [G,DG][G,DG] [G,DG]2 [G,DG]2[K:bass] [B,,G,]2 | [C,G,]2 [C,G,]2 [C,G,]2 [C,G,]2 | %16
 [D,G,D][D,G,D] [D,G,D]2 [D,A,D]2 [D,A,C]2 |[M:3/4] [G,,G,]6 |] %18
V:3
 x8 | [G,D]-[G,DG] [G,DG]2 [G,DG]2[K:bass] [G,D]2 | x8 | x8 | z4 z2 [G,B,]2 | %5
 [G,D]2 z2 z4[K:bass] | x8 | x8 |[M:3/4] x6 |[M:1/4] x2 |[M:4/4] x6[K:treble] x2 | x8 | %12
 x6[K:bass] x2 | x8 | x6[K:bass] x2 | x8 | x8 |[M:3/4] x6 |] %18
V:4
 x8 | x8 | x8 | x8 | x8 | x8 | x8 | z G, B2 c2 F2 |[M:3/4] x6 |[M:1/4] x2 |[M:4/4] x8 | x8 | x8 | %13
 x8 | x8 | x8 | x8 |[M:3/4] x6 |] %18

